X:1
T:Title
%%score { ( 1 3 ) | ( 2 4 ) }
L:1/8
M:9/8
K:G
V:1 treble nm="Grand Piano"
V:3 treble 
V:2 bass 
V:4 bass 
V:1
 z3 z3[Q:1/4=87] G2 G | G3 D3 G2 B | [GB]3 [FA]3 [FA]2 [DGB] | [Ec]2 [CEA] [B,DG]3 [A,DF]3 | %4
[M:3/4] [FA]3 G3 |[M:3/8] G2 G |[M:9/8] G3 D3 G2 B | [GB]3 [FA]3 [FA]2 [DGB] | %8
 [Ec]2 [CEA] [B,DG]3 [A,DF]3 |[M:3/4] [FA]3 G3 |[M:3/8] z F[FA] |[M:9/8] [Ac]3 [FA]3 z GB | %12
 d3 B3 d2 d | [Ge]6 [Ge]3 | d3 [DB]3 dcA |[M:3/4] [G,B,G]6 |] %16
V:2
 z3 z3 [G,B,D]2 [G,B,D] | [G,B,D]3 [G,B,]3 [G,B,D]2 [G,DG] | [D,D]3 [D,D]3 [D,D]2 G, | %3
 C,2 C, D,3 D,3 |[M:3/4] [D,C]3 [G,B,]3 |[M:3/8] [G,B,D]2 [G,B,D] | %6
[M:9/8] [G,B,D]3 [G,B,]3[K:treble] [G,B,D]2 [G,DG] | [D,D]3 [D,D]3 [D,D]2 G, | C,2 C, D,3 D,3 | %9
[M:3/4] [D,C]3 [G,B,]3 |[M:3/8] F,A,[D,D] |[M:9/8] [D,D]3 [D,D]3 [G,B,]2[K:treble] [G,DG] | %12
 [G,B,G]3 [G,DG]3 [G,B,G]2 [G,B,G] | [C,C]6 [C,C]3 | B,3 z3 A,2 C |[M:3/4] G,,6 |] %16
V:3
 x9 | x9 | x9 | x9 |[M:3/4] x6 |[M:3/8] x3 |[M:9/8] x9 | x9 | x9 |[M:3/4] x6 |[M:3/8] D2 z | %11
[M:9/8] z3 z3 .D3 | x9 | x9 | G6 F3 |[M:3/4] x6 |] %16
V:4
 x9 | x9 | x9 | x9 |[M:3/4] x6 |[M:3/8] x3 |[M:9/8] x6[K:treble] x3 | x9 | x9 |[M:3/4] x6 | %10
[M:3/8] D,2 z |[M:9/8] x8[K:treble] x | x9 | x9 | D,6 D,3 |[M:3/4] x6 |] %16

